src/assets/images/Icon-2.svg

<svg width="80" height="80" viewBox="0 0 80 80" fill="none" xmlns="http://www.w3.org/2000/svg">
<path d="M63.276 30.6595V37.8123C63.276 38.067 63.1762 38.3218 63.0102 38.5208C59.3342 42.8832 48.7151 44.4337 40.0011 44.4337C31.2758 44.4337 20.6573 42.8833 16.9705 38.5208C16.804 38.3217 16.7158 38.067 16.7158 37.8123V30.6595L38.3293 35.3323C38.8387 35.4652 39.3813 35.5203 40.0011 35.5203C40.5993 35.5203 41.1639 35.4652 41.6286 35.3433L63.276 30.6595Z" fill="white"/>
<path d="M76.4403 23.4731C76.4403 24.7131 75.6209 25.721 74.414 25.9867L70.6493 26.806V39.0303C72.3327 39.6726 73.5396 41.7651 73.5506 44.3117L73.2848 44.046C72.6645 43.4924 71.8788 43.1825 71.0589 43.1825C70.904 43.1825 70.7491 43.1936 70.6162 43.2156L65.5447 43.88C65.6886 41.5329 66.8514 39.6279 68.4344 39.0303V27.2818L41.1618 33.1837C40.7852 33.2724 40.3866 33.3055 39.999 33.3055C39.6004 33.3055 39.2127 33.2724 38.8472 33.1837L5.57392 25.9862C4.36751 25.721 3.55927 24.7131 3.55927 23.4732C3.55927 22.2442 4.36756 21.2362 5.57446 20.9706L38.8477 13.7621C39.5893 13.6072 40.3981 13.5961 41.1618 13.7621L74.4122 20.9706C75.6197 21.2369 76.439 22.2442 76.439 23.4732L76.4403 23.4731Z" fill="white"/>
<path d="M42.3492 59.7272L42.5246 59.7472V49.1395L39.989 49.4714L37.4643 49.1395V59.7472L37.6455 59.7267L35.3394 64.7913C35.0857 65.348 35.332 66.0045 35.8882 66.2582C36.4528 66.514 37.1036 66.2603 37.3551 65.7094L39.9974 59.9063L42.6397 65.7088C42.8939 66.2655 43.5514 66.5114 44.1066 66.2577C44.6628 66.004 44.9091 65.3475 44.6554 64.7908L42.3492 59.7272Z" fill="white"/>
<path d="M35.2503 48.8527L9.09635 45.4089C8.77545 45.3648 8.45402 45.4641 8.21032 45.6857C6.28387 47.4132 5.67466 52.1191 5.91829 56.0056C6.04014 58.0098 6.52753 61.5529 8.32111 62.7928C8.50913 62.9257 8.73078 62.9919 8.95241 62.9919C8.99653 62.9919 9.04117 62.9919 9.07426 62.9808L35.2497 60.0024L35.2503 48.8527Z" fill="white"/>
<path d="M72.6434 46.7592C72.3777 46.3054 72.0899 45.9619 71.791 45.6851C71.5473 45.4635 71.2264 45.3642 70.905 45.4083L44.7403 48.8521V60.0023L70.9279 62.9808C71.1936 63.0138 71.4594 62.9477 71.681 62.7927C74.8586 60.5779 74.6705 50.3138 72.6443 46.7591L72.6434 46.7592Z" fill="white"/>
</svg>

<svg xmlns="http://www.w3.org/2000/svg" width="80" height="80" fill="none"><path fill="#fff" d="M63.276 30.66v7.152c0 .255-.1.51-.266.709-3.676 4.362-14.295 5.913-23.009 5.913-8.725 0-19.344-1.55-23.03-5.913a1.11 1.11 0 0 1-.255-.709V30.66l21.613 4.672c.51.133 1.052.188 1.672.188.598 0 1.163-.055 1.628-.177l21.647-4.684Z"/><path fill="#fff" d="M76.44 23.473c0 1.24-.82 2.248-2.026 2.514l-3.765.819V39.03c1.684.643 2.89 2.735 2.902 5.282l-.266-.266a3.34 3.34 0 0 0-2.226-.864c-.155 0-.31.012-.443.034l-5.071.664c.144-2.347 1.306-4.252 2.89-4.85V27.282l-27.273 5.902a5.116 5.116 0 0 1-1.163.122c-.399 0-.786-.034-1.152-.122L5.574 25.986c-1.206-.265-2.015-1.273-2.015-2.513 0-1.229.809-2.237 2.015-2.502l33.274-7.209a5.622 5.622 0 0 1 2.314 0l33.25 7.209c1.208.266 2.027 1.273 2.027 2.502h.001ZM42.35 59.727l.175.02V49.14l-2.536.332-2.525-.331v10.607l.181-.02-2.306 5.064a1.108 1.108 0 0 0 2.016.918l2.642-5.803 2.643 5.803a1.108 1.108 0 0 0 2.015-.918l-2.306-5.064ZM35.25 48.853 9.096 45.409a1.09 1.09 0 0 0-.886.277c-1.926 1.727-2.535 6.433-2.292 10.32.122 2.004.61 5.547 2.403 6.787.188.133.41.199.631.199.045 0 .09 0 .122-.011l26.176-2.979v-11.15ZM72.643 46.76a4.614 4.614 0 0 0-.852-1.075 1.09 1.09 0 0 0-.886-.277L44.74 48.852v11.15l26.188 2.979c.266.033.531-.033.753-.188 3.178-2.215 2.99-12.48.963-16.034Z"/></svg>
